dist/images/logo.svg

<svg width="374" height="172" viewBox="0 0 374 172" fill="none" xmlns="http://www.w3.org/2000/svg">
<mask id="mask0" mask-type="alpha" maskUnits="userSpaceOnUse" x="122" y="-1" width="150" height="103">
<path d="M158.076 73.2735V86.4842H145.481L130.233 70.2249C115.207 42.7873 127.656 15.7601 137 7.99998C160.481 -11.5 192.511 31.0486 194.5 28C196.091 25.5611 213.959 0.5 246 0.5L248 32.5L270.111 100.711L241.022 90.3222L226.358 52.9494L199.841 61.2333V82.0111H182.844V61.2333L158.076 73.2735Z" fill="#C4C4C4" stroke="black" stroke-width="1.29786"/>
</mask>
<g mask="url(#mask0)">
<path d="M178.876 33.2047C178.794 29.8049 177.474 26.5824 175.211 24.1199L152.419 4.90953C151.522 4.15375 150.197 4.21024 149.369 5.04049C148.487 5.9238 148.487 7.35662 149.369 8.23993L166.756 25.6614C167.822 26.7296 167.822 28.462 166.756 29.5302L159.04 37.2609C157.974 38.3291 156.245 38.3291 155.179 37.2609L137.792 19.8394C136.91 18.9561 135.48 18.9561 134.598 19.8394C133.77 20.6697 133.713 21.9972 134.467 22.8959L153.641 45.732C156.098 48.0002 159.315 49.3226 162.708 49.4047L169.299 49.4253C172.345 49.4355 175.247 50.7194 177.307 52.9679L229.731 110.637C232.292 113.413 237.077 113.066 239.744 110.392C242.413 107.719 242.76 102.926 239.989 100.359L182.432 47.8324C180.188 45.7688 178.907 42.8603 178.897 39.809L178.876 33.2047Z" fill="white" fill-opacity="0.68"/>
<path d="M241.875 104.298C241.863 104.184 241.848 104.07 241.831 103.956C241.797 103.729 241.753 103.505 241.696 103.284C241.668 103.174 241.637 103.064 241.603 102.956C241.3 101.978 240.767 101.08 239.988 100.359L182.432 47.8324C182.087 47.5157 181.768 47.1767 181.47 46.8224C181.283 46.5998 181.102 46.373 180.934 46.1368C180.826 45.9844 180.72 45.8295 180.62 45.6712C180.216 45.0403 179.879 44.371 179.613 43.6726C179.148 42.4512 178.9 41.1433 178.896 39.8089L178.875 33.2038C178.85 32.1416 178.704 31.0973 178.445 30.0865C178.341 29.6825 178.22 29.2845 178.082 28.8925C177.458 27.1301 176.483 25.5047 175.21 24.1199L152.418 4.90951C152.305 4.8145 152.187 4.73319 152.064 4.66386C151.754 4.49096 151.414 4.39681 151.073 4.38055C150.936 4.37455 150.798 4.37969 150.663 4.39852C150.188 4.46271 149.731 4.67755 149.368 5.04132C148.486 5.92463 148.486 7.35659 149.368 8.24076L166.755 25.6622C167.088 25.996 167.318 26.3949 167.443 26.8177C167.492 26.9863 167.526 27.1592 167.543 27.3339C167.559 27.5085 167.559 27.6839 167.543 27.8585C167.518 28.1204 167.455 28.3789 167.355 28.6254C167.222 28.955 167.022 29.2631 166.755 29.5302L164.364 31.9267L166.023 33.3253C168.287 35.7878 169.607 39.0104 169.689 42.4101C169.689 42.4101 169.689 42.4803 169.689 42.6087C169.703 46.0486 171.628 49.1479 174.62 50.8349C174.623 50.8367 174.626 50.8384 174.629 50.8401C174.689 50.8735 174.747 50.9094 174.806 50.9445C174.893 50.9959 174.979 51.0481 175.064 51.1011C175.124 51.1388 175.184 51.1773 175.243 51.2167C175.332 51.2749 175.42 51.334 175.507 51.3947C175.557 51.4307 175.608 51.4649 175.658 51.5009C175.79 51.5967 175.92 51.6951 176.049 51.797C176.076 51.8184 176.101 51.8407 176.129 51.8629C176.234 51.9485 176.339 52.0358 176.441 52.1265C176.484 52.1633 176.526 52.2019 176.569 52.2395C176.658 52.3208 176.747 52.4039 176.835 52.4886C176.873 52.5254 176.911 52.5613 176.949 52.599C177.07 52.7188 177.19 52.8421 177.306 52.9688L218.794 98.6066L230.8 109.564C231.614 110.318 232.158 111.265 232.454 112.294C232.916 112.427 233.395 112.51 233.881 112.544H233.882C234.201 112.568 234.523 112.568 234.845 112.55C234.855 112.549 234.864 112.548 234.872 112.548C235.19 112.527 235.508 112.488 235.823 112.428C235.834 112.426 235.845 112.424 235.857 112.421C236 112.394 236.144 112.361 236.286 112.325C236.302 112.321 236.319 112.318 236.334 112.313C236.488 112.274 236.64 112.23 236.791 112.181C236.794 112.18 236.796 112.179 236.799 112.178C236.939 112.132 237.077 112.081 237.216 112.028C237.244 112.017 237.272 112.006 237.3 111.994C237.438 111.938 237.574 111.88 237.708 111.817C237.711 111.815 237.714 111.814 237.716 111.814C237.853 111.748 237.987 111.678 238.12 111.606C238.15 111.588 238.181 111.571 238.211 111.554C238.318 111.493 238.423 111.43 238.527 111.364C238.553 111.347 238.581 111.331 238.607 111.314C238.731 111.232 238.852 111.148 238.971 111.059C238.995 111.041 239.017 111.024 239.04 111.006C239.137 110.932 239.232 110.856 239.325 110.776C239.356 110.75 239.387 110.724 239.417 110.697C239.529 110.598 239.638 110.498 239.743 110.393C241.161 108.972 241.923 106.954 241.912 104.988C241.91 104.757 241.898 104.526 241.875 104.298V104.298Z" fill="white" fill-opacity="0.68"/>
<path d="M221.954 45.1911C226.117 44.8394 229.901 42.6268 232.254 39.1672L237.455 31.5212C241.714 25.2584 243.388 17.5868 242.124 10.1145C241.917 8.89229 241.299 7.82409 240.425 7.04691C239.55 6.26974 238.417 5.78272 237.181 5.72366C229.626 5.36246 222.224 7.94649 216.529 12.9348L209.577 19.0247C206.431 21.7799 204.693 25.8096 204.843 29.9934L205.218 36.5874C205.391 39.6336 204.286 42.614 202.169 44.8085L147.866 100.704C145.254 103.432 145.887 108.196 148.711 110.704C151.534 113.212 156.331 113.271 158.721 110.346L207.594 49.6265C209.515 47.2591 212.336 45.8023 215.375 45.6088L221.954 45.1911Z" fill="white" fill-opacity="0.68"/>
<path d="M242.124 10.1144C241.917 8.89216 241.299 7.82397 240.425 7.04679C240.096 6.75492 239.732 6.50414 239.34 6.30214C238.948 6.09928 238.526 5.94522 238.086 5.84593C237.793 5.78002 237.49 5.73808 237.181 5.72353C236.909 5.71069 236.638 5.70299 236.367 5.697C236.285 5.69529 236.203 5.69529 236.121 5.69443C235.927 5.69186 235.734 5.69186 235.541 5.69358C235.452 5.69358 235.363 5.69529 235.274 5.69614C235.073 5.70042 234.873 5.70641 234.672 5.71326C234.601 5.71669 234.529 5.7184 234.458 5.72182C234.184 5.7338 233.911 5.74921 233.637 5.76975C233.705 11.7347 231.955 17.62 228.561 22.6101L223.36 30.2552C221.51 32.9736 218.779 34.9225 215.673 35.8033C213.296 36.4777 210.972 37.3277 208.77 38.4506C206.726 39.4931 204.716 40.5348 204.691 40.611C204.684 40.6332 204.676 40.6555 204.669 40.6769C204.618 40.8258 204.567 40.9739 204.511 41.1203C204.5 41.1502 204.487 41.1793 204.475 41.2093C204.421 41.3471 204.366 41.4849 204.306 41.621C204.289 41.6586 204.271 41.6963 204.254 41.734C204.196 41.8606 204.138 41.9873 204.075 42.1123C204.052 42.1585 204.026 42.203 204.003 42.2492C203.944 42.3648 203.883 42.4795 203.819 42.5933C203.788 42.6481 203.755 42.7012 203.723 42.7551C203.663 42.8586 203.603 42.9614 203.539 43.0632C203.499 43.1265 203.456 43.1882 203.414 43.2515C203.354 43.3414 203.296 43.4321 203.233 43.5203C203.182 43.5939 203.126 43.6658 203.072 43.7377C203.016 43.8139 202.961 43.8909 202.903 43.9645C202.833 44.0535 202.76 44.14 202.687 44.2273C202.641 44.2829 202.596 44.3394 202.549 44.3942C202.426 44.5354 202.3 44.6732 202.169 44.8084L147.866 100.704C145.254 103.432 145.887 108.196 148.711 110.704C151.534 113.212 156.331 113.271 158.721 110.346L207.594 49.6264C209.515 47.2589 212.336 45.8022 215.375 45.6087L221.954 45.191C226.117 44.8392 229.901 42.6267 232.254 39.167L237.454 31.5211C241.714 25.2583 243.388 17.5866 242.124 10.1144V10.1144Z" fill="white" fill-opacity="0.68"/>
<rect x="139.886" y="14.9762" width="5.13814" height="42.8179" rx="2.56907" transform="rotate(-46.2203 139.886 14.9762)" fill="white" fill-opacity="0.68"/>
</g>
<path d="M3.98336 146.148V132.382H13.766V78.4305H3.98336V64.6645H75.8011V90.4978H60.2191V78.4305H34.9716V97.2343H55.3571V111H34.9716V132.382H60.2191V120.197H75.8011V146.148H3.98336ZM148.263 133.085V146.148H121.024V141.696C116.142 145.21 110.987 146.968 105.559 146.968C99.9356 146.968 95.0735 145.367 90.973 142.164C86.9116 138.962 84.8808 134.666 84.8808 129.277C84.8808 123.849 87.0287 119.299 91.3245 115.628C95.6203 111.957 101.166 110.122 107.961 110.122C111.749 110.122 116.103 111.078 121.024 112.992V109.536C121.024 106.646 120.048 104.283 118.095 102.448C116.142 100.573 113.526 99.6361 110.245 99.6361C106.184 99.6361 102.708 101.12 99.8184 104.088L85.2323 101.452C89.45 92.509 98.6078 88.0374 112.706 88.0374C118.173 88.0374 122.703 88.6623 126.296 89.912C129.889 91.1226 132.564 92.7042 134.321 94.6569C136.079 96.6095 137.309 98.7574 138.012 101.101C138.754 103.405 139.125 107.173 139.125 112.406V133.085H148.263ZM121.024 125.176C116.65 122.443 113.155 121.076 110.538 121.076C108.469 121.076 106.575 121.681 104.856 122.892C103.177 124.103 102.337 125.86 102.337 128.164C102.337 130.234 103.021 132.011 104.388 133.495C105.754 134.979 107.512 135.721 109.66 135.721C113.018 135.721 116.806 133.749 121.024 129.804V125.176ZM152.247 102.565V89.4433H159.452V80.5393L177.553 67.5348V89.4433H187.98V102.565H177.553V127.11C177.553 129.336 177.826 130.839 178.373 131.62C178.959 132.362 180.267 132.733 182.298 132.733C183.977 132.733 185.871 132.343 187.98 131.562V144.097C183.332 146.011 178.783 146.968 174.331 146.968C164.411 146.968 159.452 142.047 159.452 132.206V102.565H152.247ZM204.323 73.217C204.323 70.4833 205.28 68.1401 207.194 66.1875C209.146 64.2349 211.489 63.2586 214.223 63.2586C216.996 63.2586 219.339 64.2349 221.252 66.1875C223.166 68.1401 224.123 70.4833 224.123 73.217C224.123 75.9507 223.147 78.2938 221.194 80.2464C219.28 82.16 216.957 83.1168 214.223 83.1168C211.528 83.1168 209.205 82.1405 207.252 80.1879C205.299 78.2352 204.323 75.9116 204.323 73.217ZM196.356 102.565V89.4433H223.068V133.085H231.504V146.148H196.356V133.085H204.968V102.565H196.356ZM283.815 129.043L297.874 133.553C291.977 142.809 282.76 147.436 270.224 147.436C260.227 147.436 252.416 144.8 246.793 139.528C241.208 134.256 238.416 127.324 238.416 118.733C238.416 109.985 241.306 102.682 247.086 96.8243C252.866 90.9664 260.227 88.0374 269.17 88.0374C275.653 88.0374 281.257 89.6777 285.982 92.9581C290.708 96.2385 293.988 100.319 295.823 105.201C297.659 110.083 298.577 115.53 298.577 121.545H256.341C256.615 126.7 258.235 130.351 261.203 132.499C264.21 134.647 267.374 135.721 270.693 135.721C275.028 135.721 279.402 133.495 283.815 129.043ZM280.359 111.469C279.929 108.306 278.679 105.611 276.61 103.385C274.579 101.159 271.787 100.046 268.233 100.046C261.594 100.046 257.728 103.854 256.634 111.469H280.359ZM309.589 146.148V126.641H322.828C322.945 129.297 324.176 131.425 326.519 133.026C328.862 134.588 331.752 135.369 335.188 135.369C338.156 135.369 340.461 134.862 342.101 133.846C343.78 132.792 344.62 131.464 344.62 129.863C344.62 128.379 343.858 127.227 342.335 126.407C340.812 125.587 337.824 124.805 333.372 124.063C324.195 122.579 317.576 120.334 313.514 117.327C309.453 114.281 307.422 110.258 307.422 105.26C307.422 100.573 309.336 96.629 313.163 93.4267C316.99 90.1853 322.067 88.5647 328.393 88.5647C333.509 88.5647 338.293 89.5019 342.745 91.3764V89.4433H355.691V105.904H342.745C341.574 101.96 337.434 99.9875 330.326 99.9875C325.093 99.9875 322.477 101.432 322.477 104.322C322.477 105.416 323.004 106.255 324.058 106.841C325.152 107.388 327.905 108.052 332.318 108.833C339.308 110.044 344.542 111.254 348.017 112.465C351.493 113.675 354.266 115.687 356.335 118.498C358.444 121.271 359.499 124.61 359.499 128.515C359.499 134.061 357.507 138.611 353.524 142.164C349.579 145.679 343.975 147.436 336.711 147.436C329.955 147.436 325.328 146.07 322.828 143.336V146.148H309.589Z" fill="white"/>
</svg>

<svg width="374" height="172" fill="none" xmlns="http://www.w3.org/2000/svg"><mask id="a" maskUnits="userSpaceOnUse" x="122" y="-1" width="150" height="103"><path d="M158.076 73.273v13.211h-12.595l-15.248-16.26C115.207 42.788 127.656 15.76 137 8c23.481-19.5 55.511 23.049 57.5 20C196.091 25.561 213.959.5 246 .5l2 32 22.111 68.211-29.089-10.389-14.664-37.373-26.517 8.284v20.778h-16.997V61.233l-24.768 12.04z" fill="#C4C4C4" stroke="#000" stroke-width="1.298"/></mask><g mask="url(#a)" fill="#fff" fill-opacity=".68"><path d="M178.876 33.205a13.923 13.923 0 00-3.665-9.085L152.419 4.91a2.255 2.255 0 00-3.05.13 2.265 2.265 0 000 3.2l17.387 17.421a2.74 2.74 0 010 3.87l-7.716 7.73a2.727 2.727 0 01-3.861 0l-17.387-17.422a2.256 2.256 0 00-3.194 0 2.267 2.267 0 00-.131 3.057l19.174 22.836a13.862 13.862 0 009.067 3.673l6.591.02a10.909 10.909 0 018.008 3.543l52.424 57.669c2.561 2.776 7.346 2.429 10.013-.245 2.669-2.673 3.016-7.466.245-10.033l-57.557-52.527a10.948 10.948 0 01-3.535-8.023l-.021-6.604z"/><path d="M241.875 104.298a7.993 7.993 0 00-.044-.342 6.603 6.603 0 00-.228-1 5.875 5.875 0 00-1.615-2.597l-57.556-52.527a10.826 10.826 0 01-.962-1.01 10.818 10.818 0 01-.85-1.15 10.95 10.95 0 01-1.724-5.862l-.021-6.606a13.865 13.865 0 00-.793-4.312 13.916 13.916 0 00-2.872-4.772L152.418 4.91a2.255 2.255 0 00-3.05.132 2.265 2.265 0 000 3.199l17.387 17.421a2.73 2.73 0 01.6 2.963 2.71 2.71 0 01-.6.905l-2.391 2.397 1.659 1.398a13.92 13.92 0 013.666 9.085v.199c.014 3.44 1.939 6.539 4.931 8.226l.009.005c.06.033.118.07.177.104a12.622 12.622 0 01.437.273c.089.058.177.117.264.178l.151.106c.132.096.262.194.391.296l.08.066c.105.086.21.173.312.264.043.036.085.075.128.112.089.082.178.165.266.25l.114.11c.121.12.241.243.357.37l41.488 45.638 12.006 10.957c.814.754 1.358 1.701 1.654 2.73.462.133.941.216 1.427.25h.001c.319.024.641.024.963.006l.027-.002c.318-.021.636-.06.951-.12l.034-.007c.143-.027.287-.06.429-.096.016-.004.033-.007.048-.012.154-.039.306-.083.457-.132l.008-.003c.14-.046.278-.097.417-.15l.084-.034a8.229 8.229 0 00.416-.18c.137-.066.271-.136.404-.208l.091-.052c.107-.061.212-.124.316-.19l.08-.05a7.656 7.656 0 00.718-.538l.092-.079a7.23 7.23 0 00.326-.304c1.418-1.421 2.18-3.439 2.169-5.405a7.536 7.536 0 00-.037-.69z"/><path d="M221.954 45.191a13.87 13.87 0 0010.3-6.024l5.201-7.646a29.362 29.362 0 004.669-21.407 5.278 5.278 0 00-1.699-3.067 5.256 5.256 0 00-3.244-1.323 29.224 29.224 0 00-20.652 7.21l-6.952 6.09a13.917 13.917 0 00-4.734 10.97l.375 6.593a10.947 10.947 0 01-3.049 8.221l-54.303 55.896c-2.612 2.728-1.979 7.492.845 10 2.823 2.508 7.62 2.567 10.01-.358l48.873-60.72a10.915 10.915 0 017.781-4.017l6.579-.418z"/><path d="M242.124 10.114a5.278 5.278 0 00-4.038-4.268 5.25 5.25 0 00-.905-.122 32.45 32.45 0 00-.814-.027l-.246-.003a26.148 26.148 0 00-.58 0l-.267.002c-.201.004-.401.01-.602.017-.071.004-.143.005-.214.009-.274.012-.547.027-.821.048a29.35 29.35 0 01-5.076 16.84l-5.201 7.645a13.88 13.88 0 01-7.687 5.548c-2.377.675-4.701 1.525-6.903 2.648-2.044 1.042-4.054 2.084-4.079 2.16l-.022.066a13.31 13.31 0 01-.158.443l-.036.09c-.054.137-.109.275-.169.411l-.052.113a10.85 10.85 0 01-.179.378c-.023.046-.049.091-.072.137a9.48 9.48 0 01-.184.344c-.031.055-.064.108-.096.162a9.97 9.97 0 01-.184.308c-.04.063-.083.125-.125.188-.06.09-.118.181-.181.27-.051.073-.107.145-.161.217-.056.076-.111.153-.169.227-.07.088-.143.175-.216.262-.046.056-.091.112-.138.167-.123.141-.249.28-.38.414l-54.303 55.896c-2.612 2.728-1.979 7.492.845 10 2.823 2.508 7.62 2.567 10.01-.358l48.873-60.72a10.915 10.915 0 017.781-4.017l6.579-.418a13.87 13.87 0 0010.3-6.024l5.2-7.646a29.358 29.358 0 004.67-21.407z"/><rect x="139.886" y="14.976" width="5.138" height="42.818" rx="2.569" transform="rotate(-46.22 139.886 14.976)"/></g><path d="M3.983 146.148v-13.766h9.783V78.43H3.983V64.664h71.818v25.834H60.22V78.43H34.972v18.804h20.385V111H34.972v21.382h25.247v-12.185h15.582v25.951H3.983zm144.28-13.063v13.063h-27.239v-4.452c-4.882 3.514-10.037 5.272-15.465 5.272-5.623 0-10.486-1.601-14.586-4.804-4.061-3.202-6.092-7.498-6.092-12.887 0-5.428 2.148-9.978 6.444-13.649 4.295-3.671 9.841-5.506 16.636-5.506 3.788 0 8.142.956 13.063 2.87v-3.456c0-2.89-.976-5.253-2.929-7.088-1.953-1.875-4.569-2.812-7.85-2.812-4.061 0-7.537 1.484-10.427 4.452l-14.586-2.636c4.218-8.943 13.376-13.415 27.474-13.415 5.467 0 9.997.625 13.59 1.875 3.593 1.21 6.268 2.792 8.025 4.745 1.758 1.953 2.988 4.1 3.691 6.444.742 2.304 1.113 6.072 1.113 11.305v20.679h9.138zm-27.239-7.909c-4.374-2.733-7.869-4.1-10.486-4.1-2.069 0-3.963.605-5.682 1.816-1.679 1.211-2.519 2.968-2.519 5.272 0 2.07.684 3.847 2.051 5.331 1.366 1.484 3.124 2.226 5.272 2.226 3.358 0 7.146-1.972 11.364-5.917v-4.628zm31.223-22.611V89.443h7.205V80.54l18.101-13.004v21.908h10.427v13.122h-10.427v24.545c0 2.226.273 3.729.82 4.51.586.742 1.894 1.113 3.925 1.113 1.679 0 3.573-.39 5.682-1.171v12.535c-4.648 1.914-9.197 2.871-13.649 2.871-9.92 0-14.879-4.921-14.879-14.762v-29.641h-7.205zm52.076-29.348c0-2.734.957-5.077 2.871-7.03 1.952-1.952 4.295-2.928 7.029-2.928 2.773 0 5.116.976 7.029 2.928 1.914 1.953 2.871 4.296 2.871 7.03s-.976 5.077-2.929 7.03c-1.914 1.913-4.237 2.87-6.971 2.87-2.695 0-5.018-.977-6.971-2.93-1.953-1.952-2.929-4.275-2.929-6.97zm-7.967 29.348V89.443h26.712v43.642h8.436v13.063h-35.148v-13.063h8.612v-30.52h-8.612zm87.459 26.478l14.059 4.51c-5.897 9.256-15.114 13.883-27.65 13.883-9.997 0-17.808-2.636-23.431-7.908-5.585-5.272-8.377-12.204-8.377-20.795 0-8.748 2.89-16.051 8.67-21.909 5.78-5.858 13.141-8.787 22.084-8.787 6.483 0 12.087 1.64 16.812 4.921 4.726 3.28 8.006 7.361 9.841 12.243 1.836 4.882 2.754 10.329 2.754 16.344h-42.236c.274 5.155 1.894 8.806 4.862 10.954 3.007 2.148 6.171 3.222 9.49 3.222 4.335 0 8.709-2.226 13.122-6.678zm-3.456-17.574c-.43-3.163-1.68-5.858-3.749-8.084-2.031-2.226-4.823-3.339-8.377-3.339-6.639 0-10.505 3.808-11.599 11.423h23.725zm29.23 34.679v-19.507h13.239c.117 2.656 1.348 4.784 3.691 6.385 2.343 1.562 5.233 2.343 8.669 2.343 2.968 0 5.273-.507 6.913-1.523 1.679-1.054 2.519-2.382 2.519-3.983 0-1.484-.762-2.636-2.285-3.456-1.523-.82-4.511-1.602-8.963-2.344-9.177-1.484-15.796-3.729-19.858-6.736-4.061-3.046-6.092-7.069-6.092-12.067 0-4.687 1.914-8.631 5.741-11.833 3.827-3.242 8.904-4.862 15.23-4.862 5.116 0 9.9.937 14.352 2.811v-1.933h12.946v16.461h-12.946c-1.171-3.944-5.311-5.916-12.419-5.916-5.233 0-7.849 1.444-7.849 4.334 0 1.094.527 1.933 1.581 2.519 1.094.547 3.847 1.211 8.26 1.992 6.99 1.211 12.224 2.421 15.699 3.632 3.476 1.21 6.249 3.222 8.318 6.033 2.109 2.773 3.164 6.112 3.164 10.017 0 5.546-1.992 10.096-5.975 13.649-3.945 3.515-9.549 5.272-16.813 5.272-6.756 0-11.383-1.366-13.883-4.1v2.812h-13.239z" fill="#fff"/></svg>
